X:171
T: Fanshen wugeng
N: C0291
O: China,Liaoning
S: III, 236]
N: Melodie existiert im gesamten Nordosten. Der Text ist aus den
N: 40er Jahren. Mit anderem Text singt dies auch eine taiwanes.Saengerin.
N: Die Saengerin Lei Huilan ist Angehoerige der Zhuang Minderheit und
N: studiert an der Guangzhouer Musikhochschule.
N: Aufgenommen am 5.5.87
N: Vereinzelt Verzierungen. Die letzten beiden Takte der 5. Strophe:
N: -5_0_456_  5___ //
R: Xiaodiao, Yueyawugeng diao. Geming lishi minge]
M: 4/4
L: 1/16
K: G
B2B2d2e2B2B4dB | A3Bd2e2B2A2G2E2 | A2A4G2A8 |
B2B2d2e2B2B4dB | A3Bd2e2B2A2G2E2 | A2A4G2A2D2E4 |
B3dB2A2A2G4A2 | G8
B2E2B4 | A2G2E4
B2B2d2BB | A2G2E2e2
G2G2EGEG | A2A4B2 | d2d4e2 | BdBAG2E2
B2B2AGE2 | D2D2CDE2 | D8

@@@ Tune index: 6172
